app/assets/images/general/icons/logo-black.svg

<svg width="58" height="64" viewBox="0 0 58 64" fill="none" xmlns="http://www.w3.org/2000/svg">
<path fill-rule="evenodd" clip-rule="evenodd" d="M24.9177 2.22171L25.7568 1.67782L24.6691 -0.000488281L23.8299 0.543407L2.12 14.6146L0.824219 15.4545L2.12065 16.2934L8.95525 20.7158L9.50064 21.0687L10.0448 20.7138L17.7453 15.6917V25.505H19.7453V13.8457V11.9996L18.199 13.008L9.49635 18.6837L4.50357 15.4531L24.9177 2.22171ZM19.7453 47.2149H17.7453V53.5252L9.29239 59.3772V23.4945V22.9685L8.85892 22.6705L2.42635 18.2481L0.859826 17.1711V19.0721V56.8634V57.8634H2.85983V56.8634V20.9731L7.29239 24.0205V61.2858V63.1944L8.8616 62.108L19.3145 54.8714L19.7453 54.5731V54.0492V47.2149Z" fill="black"/>
<path d="M12.7615 31.9377V27.9967H15.2981V28.725H13.6492V29.5852H14.4104C14.8319 29.5852 15.1571 29.6832 15.3861 29.8792C15.6169 30.0735 15.7324 30.3428 15.7324 30.6872C15.7324 31.083 15.6096 31.3908 15.3641 31.6107C15.1204 31.8287 14.7741 31.9377 14.3253 31.9377H12.7615ZM13.6492 30.231V31.2891H14.1686C14.5845 31.2891 14.7925 31.1077 14.7925 30.745C14.7925 30.4023 14.5937 30.231 14.1961 30.231H13.6492Z" fill="black"/>
<path d="M17.7623 32.0064C17.1979 32.0064 16.7381 31.8232 16.3826 31.4568C16.0272 31.0885 15.8495 30.6094 15.8495 30.0194C15.8495 29.3965 16.0299 28.8926 16.3909 28.5078C16.7518 28.1231 17.23 27.9307 17.8255 27.9307C18.388 27.9307 18.8423 28.1148 19.1886 28.4831C19.5367 28.8514 19.7108 29.3369 19.7108 29.9397C19.7108 30.559 19.5303 31.0583 19.1694 31.4375C18.8103 31.8168 18.3412 32.0064 17.7623 32.0064ZM17.8007 28.6947C17.4893 28.6947 17.2419 28.812 17.0587 29.0465C16.8755 29.2792 16.7839 29.5879 16.7839 29.9727C16.7839 30.3629 16.8755 30.6717 17.0587 30.8989C17.2419 31.1261 17.4819 31.2396 17.7787 31.2396C18.0847 31.2396 18.3275 31.1297 18.507 30.9099C18.6866 30.6882 18.7764 30.3813 18.7764 29.9892C18.7764 29.5806 18.6893 29.2627 18.5153 29.0355C18.3412 28.8083 18.103 28.6947 17.8007 28.6947Z" fill="black"/>
<path d="M22.4332 28.7305H20.9739V31.9377H20.0862V27.9967H22.4332V28.7305Z" fill="black"/>
<path d="M26.1506 31.9377H25.1832L24.9029 31.061H23.5012L23.2237 31.9377H22.2618L23.6964 27.9967H24.749L26.1506 31.9377ZM24.6995 30.3794L24.2763 29.0548C24.2451 28.9558 24.2231 28.8376 24.2103 28.7002H24.1883C24.1791 28.8157 24.1562 28.9302 24.1196 29.0438L23.6909 30.3794H24.6995Z" fill="black"/>
<path d="M29.7717 31.9377H28.8813V30.3327H27.2488V31.9377H26.3611V27.9967H27.2488V29.5687H28.8813V27.9967H29.7717V31.9377Z" fill="black"/>
<path d="M34.1019 33.0123H33.3214V31.9377H30.8205V33.0123H30.051V31.2122H30.4165C30.9258 30.2906 31.2071 29.2187 31.2602 27.9967H33.5413V31.2122H34.1019V33.0123ZM32.6508 31.2122V28.736H31.9803C31.9601 29.1006 31.8905 29.511 31.7714 29.9672C31.6523 30.4234 31.5048 30.8384 31.3289 31.2122H32.6508Z" fill="black"/>
<path d="M38.0226 31.9377H37.1844V29.7721C37.1844 29.5229 37.1936 29.3103 37.2119 29.1345H37.1954C37.1569 29.2096 37.091 29.3186 36.9975 29.4615L35.3705 31.9377H34.4773V27.9967H35.3156V30.1761C35.3156 30.4454 35.3082 30.6259 35.2936 30.7175H35.3046C35.3137 30.6955 35.3815 30.5883 35.508 30.3959L37.0717 27.9967H38.0226V31.9377Z" fill="black"/>
<path d="M42.0588 31.9377H41.1683V30.3327H39.5358V31.9377H38.6481V27.9967H39.5358V29.5687H41.1683V27.9967H42.0588V31.9377Z" fill="black"/>
<path d="M45.5068 31.7975C45.2191 31.9368 44.8435 32.0064 44.38 32.0064C43.7754 32.0064 43.2999 31.8287 42.9536 31.4733C42.6073 31.1178 42.4342 30.6442 42.4342 30.0524C42.4342 29.4221 42.6284 28.9109 43.0168 28.5188C43.4071 28.1268 43.9128 27.9307 44.5339 27.9307C44.9186 27.9307 45.2429 27.9793 45.5068 28.0764V28.9311C45.2429 28.7735 44.9425 28.6947 44.6053 28.6947C44.2352 28.6947 43.9366 28.8111 43.7094 29.0438C43.4822 29.2765 43.3686 29.5916 43.3686 29.9892C43.3686 30.3703 43.4758 30.6744 43.6902 30.9016C43.9045 31.127 44.1931 31.2396 44.5559 31.2396C44.9022 31.2396 45.2191 31.1554 45.5068 30.9868V31.7975Z" fill="black"/>
<path d="M49.1884 31.9377H48.0671L46.9183 30.2255C46.8963 30.1925 46.8615 30.1202 46.8139 30.0084H46.8001V31.9377H45.9124V27.9967H46.8001V29.86H46.8139C46.8358 29.8087 46.8725 29.7354 46.9238 29.6401L48.0121 27.9967H49.0702L47.6961 29.8765L49.1884 31.9377Z" fill="black"/>
<path d="M52.8315 31.9377H51.9933V29.7721C51.9933 29.5229 52.0024 29.3103 52.0208 29.1345H52.0043C51.9658 29.2096 51.8998 29.3186 51.8064 29.4615L50.1794 31.9377H49.2862V27.9967H50.1245V30.1761C50.1245 30.4454 50.1171 30.6259 50.1025 30.7175H50.1135C50.1226 30.6955 50.1904 30.5883 50.3168 30.3959L51.8806 27.9967H52.8315V31.9377Z" fill="black"/>
<path d="M57.0023 31.9377H56.1641V29.7721C56.1641 29.5229 56.1732 29.3103 56.1916 29.1345H56.1751C56.1366 29.2096 56.0706 29.3186 55.9772 29.4615L54.3502 31.9377H53.457V27.9967H54.2953V30.1761C54.2953 30.4454 54.2879 30.6259 54.2733 30.7175H54.2843C54.2934 30.6955 54.3612 30.5883 54.4876 30.3959L56.0514 27.9967H57.0023V31.9377ZM56.4444 26.6802C56.4114 26.9716 56.2859 27.2033 56.0679 27.3756C55.8499 27.5478 55.5796 27.6339 55.2572 27.6339C54.9292 27.6339 54.6562 27.5478 54.4382 27.3756C54.2201 27.2033 54.1029 26.9716 54.0864 26.6802H54.7185C54.7276 26.8213 54.7854 26.9377 54.8916 27.0293C54.9979 27.119 55.1234 27.1639 55.2681 27.1639C55.4111 27.1639 55.5347 27.1181 55.6392 27.0265C55.7436 26.9349 55.8013 26.8195 55.8123 26.6802H56.4444Z" fill="black"/>
<path d="M16.0374 38.3703H14.9161L13.7673 36.6581C13.7454 36.6252 13.7106 36.5528 13.6629 36.441H13.6492V38.3703H12.7615V34.4293H13.6492V36.2926H13.6629C13.6849 36.2413 13.7215 36.168 13.7728 36.0728L14.8612 34.4293H15.9193L14.5451 36.3091L16.0374 38.3703Z" fill="black"/>
<path d="M19.6806 38.3703H18.8423V36.2047C18.8423 35.9555 18.8515 35.743 18.8698 35.5671H18.8533C18.8149 35.6422 18.7489 35.7512 18.6555 35.8941L17.0285 38.3703H16.1353V34.4293H16.9735V36.6087C16.9735 36.878 16.9662 37.0585 16.9515 37.1501H16.9625C16.9717 37.1281 17.0395 37.0209 17.1659 36.8285L18.7297 34.4293H19.6806V38.3703Z" fill="black"/>
<path d="M21.1938 37.0127V38.3703H20.3061V34.4293H21.6967C22.6898 34.4293 23.1863 34.8479 23.1863 35.6853C23.1863 36.081 23.0434 36.4016 22.7575 36.6472C22.4736 36.8908 22.0934 37.0127 21.617 37.0127H21.1938ZM21.1938 35.1109V36.3393H21.5428C22.0155 36.3393 22.2519 36.1323 22.2519 35.7182C22.2519 35.3133 22.0155 35.1109 21.5428 35.1109H21.1938Z" fill="black"/>
<path d="M26.8899 38.3703H26.0022V35.2043H24.3697V38.3703H23.482V34.4293H26.8899V38.3703Z" fill="black"/>
<path d="M31.0552 38.3703H30.217V36.2047C30.217 35.9555 30.2261 35.743 30.2444 35.5671H30.2279C30.1895 35.6422 30.1235 35.7512 30.0301 35.8941L28.4031 38.3703H27.5099V34.4293H28.3481V36.6087C28.3481 36.878 28.3408 37.0585 28.3261 37.1501H28.3371C28.3463 37.1281 28.4141 37.0209 28.5405 36.8285L30.1043 34.4293H31.0552V38.3703Z" fill="black"/>
<path d="M34.844 38.3703H33.9535V36.8066C33.5853 37.0081 33.2124 37.1089 32.835 37.1089C32.0196 37.1089 31.612 36.7168 31.612 35.9326V34.4293H32.4969V35.8556C32.4969 36.1964 32.6847 36.3668 33.0603 36.3668C33.3571 36.3668 33.6549 36.277 33.9535 36.0975V34.4293H34.844V38.3703Z" fill="black"/>
<path d="M38.8993 38.3703H38.0089V36.7653H36.3764V38.3703H35.4887V34.4293H36.3764V36.0013H38.0089V34.4293H38.8993V38.3703Z" fill="black"/>
<path d="M43.6748 38.3703H42.7926V34.4293H43.6748V38.3703ZM39.5221 38.3703V34.4293H40.4098V35.9051H40.9897C41.9406 35.9051 42.4161 36.2917 42.4161 37.0649C42.4161 37.4771 42.2878 37.7978 42.0313 38.0268C41.7748 38.2558 41.4129 38.3703 40.9457 38.3703H39.5221ZM40.4098 36.5757V37.6942H40.8111C41.2581 37.6942 41.4816 37.5046 41.4816 37.1254C41.4816 36.7589 41.2636 36.5757 40.8275 36.5757H40.4098Z" fill="black"/>
<path d="M47.8428 38.3703H47.0046V36.2047C47.0046 35.9555 47.0138 35.743 47.0321 35.5671H47.0156C46.9771 35.6422 46.9112 35.7512 46.8177 35.8941L45.1907 38.3703H44.2975V34.4293H45.1358V36.6087C45.1358 36.878 45.1284 37.0585 45.1138 37.1501H45.1248C45.1339 37.1281 45.2017 37.0209 45.3281 36.8285L46.8919 34.4293H47.8428V38.3703ZM47.2849 33.1129C47.2519 33.4042 47.1264 33.6359 46.9084 33.8082C46.6904 33.9804 46.4201 34.0665 46.0977 34.0665C45.7697 34.0665 45.4967 33.9804 45.2787 33.8082C45.0606 33.6359 44.9434 33.4042 44.9269 33.1129H45.559C45.5682 33.2539 45.6259 33.3703 45.7321 33.4619C45.8384 33.5517 45.9639 33.5966 46.1087 33.5966C46.2516 33.5966 46.3752 33.5507 46.4797 33.4591C46.5841 33.3675 46.6418 33.2521 46.6528 33.1129H47.2849Z" fill="black"/>
<path d="M12.5088 44.6574V43.8796C12.8221 44.0903 13.1785 44.1957 13.5779 44.1957C14.0726 44.1957 14.3199 44.017 14.3199 43.6598C14.3199 43.297 14.0478 43.1156 13.5037 43.1156H12.998V42.4505H13.4817C13.9654 42.4505 14.2072 42.2801 14.2072 41.9393C14.2072 41.6279 14.0011 41.4721 13.5889 41.4721C13.2939 41.4721 12.9787 41.5656 12.6435 41.7525V41.0269C12.9806 40.873 13.3534 40.7961 13.762 40.7961C14.1926 40.7961 14.526 40.8858 14.7624 41.0654C15.0006 41.2431 15.1197 41.485 15.1197 41.7909C15.1197 42.0309 15.0519 42.2352 14.9163 42.4038C14.7825 42.5705 14.5911 42.6832 14.3419 42.7418V42.7556C14.6222 42.7922 14.8412 42.8939 14.9987 43.0606C15.1581 43.2255 15.2378 43.4307 15.2378 43.6763C15.2378 44.0555 15.1004 44.3496 14.8256 44.5585C14.5508 44.7673 14.155 44.8718 13.6383 44.8718C13.1473 44.8718 12.7708 44.8003 12.5088 44.6574Z" fill="black"/>
<path d="M19.0898 44.8031H18.1224L17.8421 43.9264H16.4405L16.1629 44.8031H15.201L16.6356 40.862H17.6882L19.0898 44.8031ZM17.6387 43.2448L17.2155 41.9201C17.1844 41.8212 17.1624 41.703 17.1495 41.5656H17.1276C17.1184 41.681 17.0955 41.7955 17.0589 41.9091L16.6301 43.2448H17.6387Z" fill="black"/>
<path d="M19.3004 44.8031V40.862H20.735C21.1747 40.862 21.5127 40.9426 21.7491 41.1039C21.9854 41.2651 22.1036 41.4923 22.1036 41.7854C22.1036 41.998 22.0312 42.1839 21.8865 42.3433C21.7436 42.5027 21.5604 42.6136 21.3368 42.6759V42.6869C21.6172 42.7217 21.8407 42.8252 22.0074 42.9974C22.176 43.1697 22.2603 43.3794 22.2603 43.6268C22.2603 43.9877 22.1311 44.2745 21.8728 44.487C21.6144 44.6977 21.2617 44.8031 20.8147 44.8031H19.3004ZM20.1881 41.5161V42.4505H20.5783C20.7615 42.4505 20.9054 42.4065 21.0098 42.3186C21.1161 42.2288 21.1692 42.1061 21.1692 41.9503C21.1692 41.6608 20.953 41.5161 20.5206 41.5161H20.1881ZM20.1881 43.1101V44.149H20.669C20.8742 44.149 21.0345 44.1013 21.15 44.0061C21.2672 43.9108 21.3258 43.7807 21.3258 43.6158C21.3258 43.4582 21.2681 43.3346 21.1527 43.2448C21.0391 43.155 20.8797 43.1101 20.6745 43.1101H20.1881Z" fill="black"/>
<path d="M24.2956 44.8718C23.7313 44.8718 23.2715 44.6885 22.916 44.3221C22.5606 43.9538 22.3828 43.4747 22.3828 42.8847C22.3828 42.2618 22.5633 41.758 22.9243 41.3732C23.2852 40.9884 23.7634 40.7961 24.3589 40.7961C24.9213 40.7961 25.3757 40.9802 25.722 41.3485C26.0701 41.7167 26.2442 42.2023 26.2442 42.805C26.2442 43.4243 26.0637 43.9236 25.7028 44.3029C25.3437 44.6821 24.8746 44.8718 24.2956 44.8718ZM24.3341 41.5601C24.0226 41.5601 23.7753 41.6773 23.5921 41.9119C23.4089 42.1445 23.3173 42.4533 23.3173 42.838C23.3173 43.2283 23.4089 43.537 23.5921 43.7642C23.7753 43.9914 24.0153 44.105 24.3121 44.105C24.6181 44.105 24.8609 43.9951 25.0404 43.7752C25.22 43.5535 25.3098 43.2466 25.3098 42.8545C25.3098 42.4459 25.2227 42.1281 25.0487 41.9009C24.8746 41.6737 24.6364 41.5601 24.3341 41.5601Z" fill="black"/>
<path d="M30.327 45.8776H29.5465V44.8031H27.0456V45.8776H26.2761V44.0775H26.6416C27.1509 43.1559 27.4322 42.0841 27.4853 40.862H29.7664V44.0775H30.327V45.8776ZM28.8759 44.0775V41.6013H28.2054C28.1852 41.9659 28.1156 42.3763 27.9965 42.8325C27.8774 43.2887 27.7299 43.7037 27.554 44.0775H28.8759Z" fill="black"/>
</svg>

<svg width="58" height="64" fill="none" xmlns="http://www.w3.org/2000/svg"><path fill-rule="evenodd" clip-rule="evenodd" d="M24.918 2.222l.839-.544L24.669 0l-.84.543L2.12 14.615l-1.296.84 1.297.838 6.834 4.423.546.353.544-.355 7.7-5.022v9.813h2V12L18.2 13.008l-8.703 5.676-4.992-3.23L24.918 2.221zm-5.173 44.993h-2v6.31l-8.453 5.852V22.968l-.433-.297-6.433-4.423L.86 17.171v40.692h2v-36.89l4.432 3.047v39.174l1.57-1.086 10.452-7.237.431-.298v-7.358z" fill="#000"/><path d="M12.761 31.938v-3.941h2.537v.728H13.65v.86h.761c.422 0 .747.098.976.294.23.194.346.464.346.808 0 .396-.122.704-.368.924-.244.218-.59.327-1.039.327h-1.563zm.888-1.707v1.058h.52c.415 0 .623-.181.623-.544 0-.343-.198-.514-.596-.514h-.547zm4.113 1.775c-.564 0-1.024-.183-1.38-.55-.355-.367-.533-.847-.533-1.437 0-.622.18-1.126.542-1.511.36-.385.839-.577 1.435-.577.562 0 1.016.184 1.363.552.348.368.522.854.522 1.457 0 .619-.18 1.118-.542 1.497-.359.38-.828.57-1.407.57zm.039-3.311a.892.892 0 00-.742.352c-.184.232-.275.54-.275.926 0 .39.091.699.275.926a.88.88 0 00.72.34c.306 0 .549-.11.728-.33.18-.22.27-.528.27-.92 0-.408-.088-.726-.262-.954a.851.851 0 00-.714-.34zm4.632.035h-1.46v3.208h-.887v-3.941h2.347v.733zm3.717 3.208h-.967l-.28-.877H23.5l-.277.877h-.962l1.434-3.941h1.053l1.402 3.94zm-1.45-1.559l-.424-1.324a1.723 1.723 0 01-.066-.355h-.022a1.53 1.53 0 01-.068.344l-.43 1.335h1.01zm5.072 1.559h-.89v-1.605h-1.633v1.605h-.888v-3.941h.888v1.572h1.632v-1.572h.89v3.94zm4.33 1.074h-.78v-1.074H30.82v1.074h-.769v-1.8h.366c.509-.921.79-1.993.843-3.215h2.281v3.215h.56v1.8zm-1.451-1.8v-2.476h-.67c-.02.365-.09.775-.21 1.231a7.177 7.177 0 01-.442 1.245h1.322zm5.372.726h-.839v-2.166c0-.25.01-.462.028-.637h-.017a3.96 3.96 0 01-.197.326l-1.627 2.477h-.894v-3.941h.839v2.18c0 .268-.008.449-.022.54h.01c.01-.021.078-.129.204-.321l1.564-2.4h.95v3.942zm4.036 0h-.89v-1.605h-1.633v1.605h-.888v-3.941h.888v1.572h1.632v-1.572h.89v3.94zm3.448-.141c-.288.14-.663.21-1.127.21-.605 0-1.08-.178-1.426-.534-.347-.355-.52-.829-.52-1.42 0-.63.194-1.142.583-1.534.39-.392.896-.588 1.517-.588.385 0 .709.048.973.145v.855a1.724 1.724 0 00-.902-.236c-.37 0-.668.116-.896.349-.227.232-.34.548-.34.945 0 .381.107.685.321.913.215.225.503.338.866.338.346 0 .663-.085.95-.253v.81zm3.681.141h-1.12l-1.15-1.712a1.634 1.634 0 01-.104-.218H46.8v1.93h-.888v-3.941h.888v1.863h.014a3.14 3.14 0 01.11-.22l1.088-1.643h1.058l-1.374 1.88 1.492 2.06zm3.643 0h-.838v-2.166c0-.25.01-.462.028-.637h-.017a3.989 3.989 0 01-.198.326l-1.627 2.477h-.893v-3.941h.838v2.18c0 .268-.007.449-.022.54h.012c.009-.021.076-.129.203-.321l1.564-2.4h.95v3.942zm4.171 0h-.838v-2.166c0-.25.01-.462.028-.637h-.017a3.989 3.989 0 01-.198.326l-1.627 2.477h-.893v-3.941h.838v2.18c0 .268-.007.449-.022.54h.011c.01-.021.077-.129.204-.321l1.563-2.4h.951v3.942zm-.558-5.258a.991.991 0 01-.376.696c-.218.172-.488.258-.81.258-.329 0-.602-.086-.82-.258a.91.91 0 01-.352-.696h.633a.484.484 0 00.173.35.566.566 0 00.376.134.544.544 0 00.371-.138.496.496 0 00.173-.346h.632zM16.037 38.37h-1.12l-1.15-1.712a1.654 1.654 0 01-.104-.217h-.014v1.93h-.887v-3.942h.887v1.864h.014c.022-.052.059-.125.11-.22l1.088-1.644h1.058l-1.374 1.88 1.492 2.061zm3.643 0h-.838v-2.165c0-.25.01-.462.028-.638h-.017a3.953 3.953 0 01-.198.327l-1.627 2.476h-.893v-3.94h.838v2.179c0 .269-.007.45-.021.541h.01c.01-.022.078-.13.204-.322l1.564-2.399h.95v3.941zm1.514-1.357v1.357h-.888v-3.94h1.39c.994 0 1.49.418 1.49 1.255 0 .396-.143.717-.428.962-.284.244-.665.366-1.141.366h-.423zm0-1.902v1.228h.349c.473 0 .709-.207.709-.62 0-.406-.236-.608-.71-.608h-.348zm5.696 3.259h-.888v-3.166H24.37v3.166h-.888v-3.94h3.408v3.94zm4.165 0h-.838v-2.165c0-.25.01-.462.027-.638h-.016a3.953 3.953 0 01-.198.327l-1.627 2.476h-.893v-3.94h.838v2.179c0 .269-.007.45-.022.541h.011c.01-.022.077-.13.204-.322l1.563-2.399h.951v3.941zm3.789 0h-.89v-1.563a2.308 2.308 0 01-1.119.302c-.815 0-1.223-.392-1.223-1.176v-1.504h.885v1.427c0 .34.188.51.563.51.297 0 .595-.089.893-.269V34.43h.891v3.941zm4.056 0h-.891v-1.605h-1.633v1.605h-.887v-3.94h.887V36h1.633v-1.57h.89v3.941zm4.775 0h-.882v-3.94h.882v3.94zm-4.153 0v-3.94h.888v1.475h.58c.95 0 1.426.387 1.426 1.16 0 .412-.128.733-.385.962-.256.229-.618.343-1.085.343h-1.424zm.888-1.794v1.118h.401c.447 0 .67-.19.67-.569 0-.366-.217-.55-.654-.55h-.417zm7.433 1.794h-.838v-2.165c0-.25.009-.462.027-.638h-.016a3.96 3.96 0 01-.198.327L45.19 38.37h-.894v-3.94h.839v2.179c0 .269-.008.45-.022.541h.01c.01-.022.078-.13.204-.322l1.564-2.399h.95v3.941zm-.558-5.257a.991.991 0 01-.377.695c-.218.172-.488.258-.81.258-.328 0-.601-.086-.82-.258a.91.91 0 01-.351-.695h.632c.01.14.067.257.173.349.106.09.232.135.377.135a.544.544 0 00.37-.138.496.496 0 00.174-.346h.632zM12.509 44.657v-.777c.313.21.67.316 1.069.316.495 0 .742-.179.742-.536 0-.363-.272-.544-.816-.544h-.506v-.666h.484c.483 0 .725-.17.725-.51 0-.312-.206-.468-.618-.468-.295 0-.61.094-.946.28v-.725c.338-.154.71-.23 1.119-.23.43 0 .764.089 1 .268.239.178.358.42.358.726 0 .24-.068.444-.204.613a1 1 0 01-.574.338v.014c.28.036.5.138.657.305.16.164.239.37.239.615 0 .38-.138.674-.412.883-.275.208-.671.313-1.188.313-.49 0-.867-.072-1.13-.215zm6.581.146h-.968l-.28-.877h-1.401l-.278.877H15.2l1.435-3.941h1.052l1.402 3.941zm-1.451-1.558l-.424-1.325a1.734 1.734 0 01-.066-.354h-.021c-.01.115-.032.23-.07.343l-.428 1.336h1.009zm1.661 1.558v-3.941h1.435c.44 0 .778.08 1.014.242a.778.778 0 01.355.681.804.804 0 01-.217.558 1.13 1.13 0 01-.55.333v.01c.28.036.504.14.67.311a.866.866 0 01.253.63c0 .36-.129.648-.387.86-.259.21-.611.316-1.058.316H19.3zm.888-3.287v.934h.39c.184 0 .327-.044.432-.131a.456.456 0 00.16-.369c0-.29-.217-.434-.65-.434h-.332zm0 1.594v1.039h.481c.205 0 .366-.048.481-.143a.476.476 0 00.176-.39.444.444 0 00-.173-.371c-.114-.09-.273-.135-.479-.135h-.486zm4.108 1.762c-.565 0-1.024-.184-1.38-.55-.355-.368-.533-.847-.533-1.437 0-.623.18-1.127.541-1.512.361-.385.84-.577 1.435-.577.562 0 1.017.184 1.363.553.348.368.522.853.522 1.456 0 .62-.18 1.119-.541 1.498-.36.38-.828.569-1.407.569zm.038-3.312a.892.892 0 00-.742.352c-.183.233-.275.541-.275.926 0 .39.092.699.275.926a.88.88 0 00.72.341c.306 0 .549-.11.728-.33.18-.221.27-.528.27-.92 0-.41-.087-.727-.261-.954a.851.851 0 00-.715-.34zm5.993 4.318h-.78v-1.075h-2.501v1.075h-.77v-1.8h.366c.509-.922.79-1.994.843-3.216h2.281v3.215h.561v1.8zm-1.451-1.8V41.6h-.67c-.02.365-.09.775-.21 1.232-.119.456-.266.87-.442 1.245h1.322z" fill="#000"/></svg>
